public/icon/icons/plus.svg

<svg xmlns="http://www.w3.org/2000/svg" viewBox="0 0 12.857 12"><path d="M12.05 5.25H7.23V.75c0-.2-.09-.39-.24-.54A.82.82 0 0 0 6.42 0c-.21 0-.41.07-.56.21a.73.73 0 0 0-.24.54v4.5H.8c-.21 0-.42.07-.57.21C.08 5.61 0 5.8 0 6c0 .19.08.38.23.53.15.14.36.22.57.22h4.82v4.5c0 .19.08.38.24.53.15.14.35.22.56.22.22 0 .42-.08.57-.22.15-.15.24-.34.24-.53v-4.5h4.82c.21 0 .42-.08.57-.22.15-.15.23-.34.23-.53 0-.2-.08-.39-.23-.54a.837.837 0 0 0-.57-.21Z"/></svg>

<svg viewBox="0 0 12.8574 12" xmlns="http://www.w3.org/2000/svg" xmlns:xlink="http://www.w3.org/1999/xlink">
	<path d="M12.05 5.25L7.23 5.25L7.23 0.75C7.23 0.55 7.14 0.36 6.99 0.21C6.84 0.07 6.64 0 6.42 0C6.21 0 6.01 0.07 5.86 0.21C5.7 0.36 5.62 0.55 5.62 0.75L5.62 5.25L0.8 5.25C0.59 5.25 0.38 5.32 0.23 5.46C0.08 5.61 0 5.8 0 6C0 6.19 0.08 6.38 0.23 6.53C0.38 6.67 0.59 6.75 0.8 6.75L5.62 6.75L5.62 11.25C5.62 11.44 5.7 11.63 5.86 11.78C6.01 11.92 6.21 12 6.42 12C6.64 12 6.84 11.92 6.99 11.78C7.14 11.63 7.23 11.44 7.23 11.25L7.23 6.75L12.05 6.75C12.26 6.75 12.47 6.67 12.62 6.53C12.77 6.38 12.85 6.19 12.85 6C12.85 5.8 12.77 5.61 12.62 5.46C12.47 5.32 12.26 5.25 12.05 5.25Z" />
</svg>
